icons/mimetypes/64/image-x-ico.svg

<?xml version="1.0" encoding="UTF-8" standalone="no"?>
<svg width="64" version="1.1" xmlns="http://www.w3.org/2000/svg" viewBox="0 0 64 64" height="64" xmlns:xlink="http://www.w3.org/1999/xlink" xmlns:inkscape="http://www.inkscape.org/namespaces/inkscape">
 <defs id="defs4">
  <linearGradient inkscape:collect="always" xlink:href="#linearGradient4300-1" id="linearGradient4306" y1="61" y2="3" x2="0" gradientUnits="userSpaceOnUse"/>
  <linearGradient inkscape:collect="always" xlink:href="#linearGradient4410" id="linearGradient4427" y1="31" x1="54" y2="17" x2="40" gradientUnits="userSpaceOnUse" gradientTransform="matrix(1 0 0 -1 -14 78)"/>
  <linearGradient inkscape:collect="always" id="linearGradient4410">
   <stop style="stop-color:#383e51" id="stop4412"/>
   <stop offset="1" style="stop-color:#655c6f;stop-opacity:0" id="stop4414"/>
  </linearGradient>
  <linearGradient inkscape:collect="always" xlink:href="#linearGradient4351" id="linearGradient4357" y1="61" y2="47" x2="0" gradientUnits="userSpaceOnUse"/>
  <linearGradient id="linearGradient4351">
   <stop style="stop-color:#c8e3fe" id="stop4353"/>
   <stop offset="1" style="stop-color:#ffffff" id="stop4355"/>
  </linearGradient>
  <linearGradient inkscape:collect="always" id="linearGradient4300-1">
   <stop style="stop-color:#22a7f0" id="stop4302-5"/>
   <stop offset="1" style="stop-color:#19b5fe" id="stop4304-4"/>
  </linearGradient>
 </defs>
 <metadata id="metadata84"/>
 <path style="fill:url(#linearGradient4306)" id="rect3500" d="M 10 3 L 10 61 L 40 61 L 54 47 L 54 17 L 54 3 L 40 3 L 10 3 z "/>
 <rect width="30" x="10" y="60" height="1" style="fill:#2e3132;fill-opacity:0.294118" id="rect4169"/>
 <rect width="44" x="10" y="3" height="1" style="fill:#ffffff;fill-opacity:0.409836" id="rect4236"/>
 <path inkscape:connector-curvature="0" style="fill:url(#linearGradient4357);fill-rule:evenodd" id="path4314" d="M 54,47 40,61 40,47 Z"/>
 <path inkscape:connector-curvature="0" style="fill:url(#linearGradient4427);opacity:0.2;fill-rule:evenodd" id="path4320" d="M 26,61 40,47 40,61 Z"/>
 <path style="fill:#ffffff" id="rect4222" d="M 21 21 L 21 40 L 21 43 L 43 43 L 43 40 L 43 21 L 21 21 z M 22 22 L 42 22 L 42 40 L 22 40 L 22 22 z M 29 28 L 29 30.726562 L 31.726562 30.726562 L 31.726562 28 L 29 28 z M 32.273438 28 L 32.273438 30.726562 L 35 30.726562 L 35 28 L 32.273438 28 z M 29 31.273438 L 29 34 L 31.726562 34 L 31.726562 31.273438 L 29 31.273438 z M 32.273438 31.273438 L 32.273438 34 L 35 34 L 35 31.273438 L 32.273438 31.273438 z M 22 41 L 23 41 L 23 42 L 22 42 L 22 41 z M 39 41 L 40 41 L 40 42 L 39 42 L 39 41 z M 41 41 L 42 41 L 42 42 L 41 42 L 41 41 z "/>
</svg>

<?xml version="1.0" encoding="UTF-8" standalone="no"?>
<svg
   xmlns:dc="http://purl.org/dc/elements/1.1/"
   xmlns:cc="http://creativecommons.org/ns#"
   xmlns:rdf="http://www.w3.org/1999/02/22-rdf-syntax-ns#"
   xmlns:svg="http://www.w3.org/2000/svg"
   xmlns="http://www.w3.org/2000/svg"
   xmlns:xlink="http://www.w3.org/1999/xlink"
   xmlns:sodipodi="http://sodipodi.sourceforge.net/DTD/sodipodi-0.dtd"
   xmlns:inkscape="http://www.inkscape.org/namespaces/inkscape"
   width="64"
   version="1.1"
   viewBox="0 0 64 64"
   height="64"
   id="svg2"
   inkscape:version="0.91 r13725"
   sodipodi:docname="image-x-ico.svg">
  <sodipodi:namedview
     pagecolor="#ffffff"
     bordercolor="#666666"
     borderopacity="1"
     objecttolerance="10"
     gridtolerance="10"
     guidetolerance="10"
     inkscape:pageopacity="0"
     inkscape:pageshadow="2"
     inkscape:window-width="1854"
     inkscape:window-height="1051"
     id="namedview24"
     showgrid="false"
     inkscape:zoom="3.6875"
     inkscape:cx="32"
     inkscape:cy="-0.54237288"
     inkscape:window-x="66"
     inkscape:window-y="0"
     inkscape:window-maximized="1"
     inkscape:current-layer="svg2" />
  <defs
     id="defs4">
    <linearGradient
       id="linearGradient4351">
      <stop
         style="stop-color:#c8e3fe"
         id="stop4353" />
      <stop
         offset="1"
         style="stop-color:#ffffff"
         id="stop4355" />
    </linearGradient>
    <linearGradient
       inkscape:collect="always"
       id="linearGradient4300-1">
      <stop
         style="stop-color:#22a7f0"
         id="stop4302-5" />
      <stop
         offset="1"
         style="stop-color:#19b5fe"
         id="stop4304-4" />
    </linearGradient>
    <linearGradient
       inkscape:collect="always"
       xlink:href="#linearGradient4300-1"
       id="linearGradient4306-3"
       y1="61"
       y2="3"
       x2="0"
       gradientUnits="userSpaceOnUse"
       gradientTransform="matrix(1.3181818,0,0,1,-10.181818,0)" />
  </defs>
  <metadata
     id="metadata84">
    <rdf:RDF>
      <cc:Work
         rdf:about="">
        <dc:format>image/svg+xml</dc:format>
        <dc:type
           rdf:resource="http://purl.org/dc/dcmitype/StillImage" />
      </cc:Work>
    </rdf:RDF>
  </metadata>
  <path
     style="fill:url(#linearGradient4306-3);fill-opacity:1.0"
     id="rect3500-3"
     d="M 3,3 3,61 42.545455,61 61,61 61,17 61,3 42.545455,3 Z"
     inkscape:connector-curvature="0"
     sodipodi:nodetypes="cccccccc" />
  <rect
     width="58"
     x="3"
     y="60"
     height="1"
     style="fill:#2e3132;fill-opacity:0.29411801"
     id="rect4169-5" />
  <rect
     width="58"
     x="3"
     y="3"
     height="1"
     style="fill:#ffffff;fill-opacity:0.40983599"
     id="rect4236-6" />
  <path
     style="fill:#ffffff"
     id="rect4222"
     d="m 21,21 0,19 0,3 22,0 0,-3 0,-19 -22,0 z m 1,1 20,0 0,18 -20,0 0,-18 z m 7,6 0,2.72656 2.726562,0 0,-2.72656 L 29,28 Z m 3.273438,0 0,2.72656 2.726562,0 L 35,28 32.273438,28 Z M 29,31.27344 29,34 l 2.726562,0 0,-2.72656 -2.726562,0 z m 3.273438,0 0,2.72656 L 35,34 l 0,-2.72656 -2.726562,0 z M 22,41 l 1,0 0,1 -1,0 0,-1 z m 17,0 1,0 0,1 -1,0 0,-1 z m 2,0 1,0 0,1 -1,0 0,-1 z"
     inkscape:connector-curvature="0" />
</svg>
